icons/svg/battery-60.svg

﻿<?xml version="1.0" encoding="utf-8"?>
<!DOCTYPE svg PUBLIC "-//W3C//DTD SVG 1.1//EN" "http://www.w3.org/Graphics/SVG/1.1/DTD/svg11.dtd">
<svg xmlns="http://www.w3.org/2000/svg" xmlns:xlink="http://www.w3.org/1999/xlink" version="1.1" baseProfile="full" width="24" height="24" viewBox="0 0 24.00 24.00" enable-background="new 0 0 24.00 24.00" xml:space="preserve">
	<path fill="#000000" fill-opacity="1" stroke-width="0.2" stroke-linejoin="round" d="M 15.9993,11.9982L 7.99935,11.9982L 7.99941,5.99805L 15.9994,5.99805M 16.6664,3.99805L 14.9994,3.99805L 14.9994,1.99805L 8.99941,1.99805L 8.99941,3.99805L 7.3324,3.99805C 6.59609,3.99805 5.99941,4.59503 5.99941,5.33105L 5.99941,20.665C 5.99941,21.4011 6.59609,21.998 7.3324,21.998L 16.6664,21.998C 17.4027,21.998 17.9994,21.4011 17.9994,20.665L 17.9994,5.33105C 17.9994,4.59503 17.4027,3.99805 16.6664,3.99805 Z "/>
</svg>

<svg xmlns="http://www.w3.org/2000/svg" version="1.1" baseProfile="full" width="24" height="24" viewBox="0 0 24.00 24.00" xml:space="preserve"><path fill="#000" fill-opacity="1" stroke-width=".2" stroke-linejoin="round" d="M16 11.998H8v-6h8m.666-2H15v-2H9v2H7.33C6.596 3.998 6 4.595 6 5.33v15.335c0 .736.596 1.333 1.332 1.333h9.334c.737 0 1.333-.597 1.333-1.333V5.33C18 4.596 17.402 4 16.665 4z"/></svg>
